images/ui/arrow-left.svg

<svg class="arrow arrow-left" width="76px" height="29px" viewBox="0 0 76 29" version="1.1" xmlns="http://www.w3.org/2000/svg" xmlns:xlink="http://www.w3.org/1999/xlink">
    <defs>
        <polygon id="path-1" points="75.3307463 28.1935769 75.3307463 0.000334615384 0 0.000334615384 0 28.1935769"></polygon>
    </defs>
    <g id="Page-1" stroke="none" stroke-width="1" fill="none" fill-rule="evenodd">
        <g id="Desktop-HD-Copy-11" transform="translate(-47.000000, -948.000000)">
            <g id="Page-1-Copy-2" transform="translate(85.000000, 962.500000) rotate(-180.000000) translate(-85.000000, -962.500000) translate(47.000000, 948.000000)">
                <mask id="mask-2" fill="white">
                    <use xlink:href="#path-1"></use>
                </mask>
                <g id="Clip-2"></g>
                <path d="M58.8609791,0 C62.3966806,3.79007692 65.4536955,6.67223077 68.0331582,8.64646154 C70.6114866,10.6206923 73.0446209,12.0907692 75.3314269,13.0578077 L75.3314269,14.8223462 C72.6986507,16.0771538 70.1464119,17.6788462 67.6747104,19.6263077 C65.2018746,21.5737692 62.2503522,24.4291538 58.8212776,28.1935769 L55.7506507,28.1935769 C58.2495761,22.939 60.8687403,18.9001923 63.607009,16.0771538 L-0.000453731344,16.0771538 L-0.000453731344,12.1164231 L63.607009,12.1164231 C61.5856358,9.58115385 60.1768,7.6995 59.3793672,6.47034615 C58.5819343,5.24119231 57.3988299,3.08515385 55.8300537,0 L58.8609791,0 Z" id="Fill-1" fill="#000000" mask="url(#mask-2)"></path>
            </g>
        </g>
    </g>
</svg>

<svg class="arrow arrow-left" width="76" height="29" viewBox="0 0 76 29" xmlns="http://www.w3.org/2000/svg" xmlns:xlink="http://www.w3.org/1999/xlink"><defs><path id="a" d="M75.33 28.194V0H0v28.194z"/></defs><g transform="rotate(-180 38 14.5)" fill="none" fill-rule="evenodd"><mask id="b" fill="#fff"><use xlink:href="#a"/></mask><path d="M58.861 0c3.536 3.79 6.593 6.672 9.172 8.646 2.578 1.975 5.012 3.445 7.298 4.412v1.764c-2.632 1.255-5.185 2.857-7.656 4.804-2.473 1.948-5.425 4.803-8.854 8.568h-3.07c2.499-5.255 5.118-9.294 7.856-12.117H0v-3.96h63.607c-2.021-2.536-3.43-4.418-4.228-5.647C58.582 5.241 57.4 3.085 55.83 0h3.031z" fill="#000" mask="url(#b)"/></g></svg>
